X:470
T:Wagoner
C:
N:Transcribed by Tristan Scroggins Based on Herman Johnson's playing
R:bluegrass
L:1/8
Q:1/4=180
M:4/4
K:C
AG | EC z2 CD EG | cA Gc AG EG | DC B,A, G,B, DG | d^c Bd AG (3EFE | DC z2 CD EG | 
cA Gc AG EC | DE FG AB cd | ec2[cE] [c2E2] AG | EC A,G, C2 EG | cA Gc AG EG | 
DC B,A, G,B, DG | d^c Bd AG (3EFE | DC3 CD EG | cA Gc AG EG | AB cd ed cA | c2 cc c2 ea | 
gc ea gc ea | gf ed d/c3/2 ea | gc ea gc ea | gb/c'3/2g b/c'3/2 ea | (3gag ea g2 ea | 
ge dc BA G2 | FG AG BG Bd | [B/^D/][c3/2E3/2] [cE][cE] [c4E4] | 


